pim-2023/src/assets/pglFlag.svg

<svg width="80" height="57" viewBox="0 0 80 57" fill="none" xmlns="http://www.w3.org/2000/svg">
<path d="M79.3104 48.0455C79.3104 50.3624 78.3901 52.5843 76.7518 54.2225C75.1136 55.8607 72.8917 56.7811 70.5749 56.7811H9.42598C7.10917 56.7811 4.88725 55.8607 3.24901 54.2225C1.61078 52.5843 0.69043 50.3624 0.69043 48.0455V8.73555C0.69043 6.41874 1.61078 4.19682 3.24901 2.55858C4.88725 0.92035 7.10917 0 9.42598 0H70.5749C72.8917 0 75.1136 0.92035 76.7518 2.55858C78.3901 4.19682 79.3104 6.41874 79.3104 8.73555V48.0455Z" fill="#006600"/>
<path d="M70.5748 0H33.4487V56.7811H70.5748C72.8916 56.7811 75.1136 55.8607 76.7518 54.2225C78.39 52.5843 79.3104 50.3624 79.3104 48.0455V8.73555C79.3104 6.41874 78.39 4.19682 76.7518 2.55858C75.1136 0.92035 72.8916 0 70.5748 0Z" fill="#D52B1E"/>
<path d="M33.4489 10.9194C28.8153 10.9194 24.3714 12.7601 21.095 16.0366C17.8185 19.3131 15.9778 23.7569 15.9778 28.3905C15.9778 33.0242 17.8185 37.468 21.095 40.7445C24.3714 44.0209 28.8153 45.8616 33.4489 45.8616C38.0825 45.8616 42.5264 44.0209 45.8028 40.7445C49.0793 37.468 50.92 33.0242 50.92 28.3905C50.92 23.7569 49.0793 19.3131 45.8028 16.0366C42.5264 12.7601 38.0825 10.9194 33.4489 10.9194ZM20.0988 20.9522L23.5974 24.4508L18.225 27.137C18.3984 24.9648 19.0375 22.8554 20.0988 20.9522ZM18.225 29.6419L27.8341 34.4618L21.9245 38.4015L21.9551 38.4473C19.7971 35.9897 18.4891 32.9018 18.225 29.6419ZM31.265 43.503C29.263 43.2174 27.3384 42.5343 25.6044 41.4939H31.265V43.503ZM31.265 39.31H24.4971L31.265 34.7981V39.31ZM31.265 32.173L29.9394 33.0575L20.6033 28.3905L25.2244 26.08L31.265 32.1184V32.173ZM31.265 29.0304L23.5275 21.2929L31.265 22.5814V29.0304ZM31.265 20.3123L21.586 18.7552C24.0079 15.7762 27.4642 13.8203 31.265 13.278V20.3123ZM46.799 20.9522C47.8606 22.8561 48.4997 24.9662 48.6728 27.1392L43.3004 24.453L46.799 20.9522ZM35.6328 13.278C39.4333 13.8211 42.8893 15.7769 45.3118 18.7552L35.6328 20.3123V13.278ZM35.6328 22.5814L43.3703 21.2907L35.6328 29.0304V22.5814ZM35.6328 32.1184L41.6712 26.08L46.2945 28.3905L36.9606 33.0575L35.6328 32.173V32.1184ZM35.6328 43.503V41.4939H41.2934C39.5593 42.5343 37.6347 43.2174 35.6328 43.503ZM35.6328 39.31V34.7981L42.4006 39.31H35.6328ZM44.9449 38.4473L44.9755 38.4015L39.0659 34.4618L48.675 29.6419C48.4089 32.9013 47.1011 35.9886 44.9449 38.4473Z" fill="#FFCC4D"/>
<path d="M24.7131 17.4712V32.7584C24.7131 35.0752 25.6335 37.2971 27.2717 38.9354C28.91 40.5736 31.1319 41.494 33.4487 41.494C35.7655 41.494 37.9874 40.5736 39.6257 38.9354C41.2639 37.2971 42.1842 35.0752 42.1842 32.7584V17.4712H24.7131Z" fill="#D52B1E"/>
<path d="M26.8972 19.655V32.7584C26.8972 34.496 27.5875 36.1624 28.8162 37.3911C30.0448 38.6198 31.7113 39.31 33.4489 39.31C35.1865 39.31 36.8529 38.6198 38.0816 37.3911C39.3103 36.1624 40.0005 34.496 40.0005 32.7584V19.655H26.8972Z" fill="white"/>
<path d="M29.0811 26.2067H37.8166V30.5744H29.0811V26.2067Z" fill="#829ACD"/>
<path d="M31.2649 24.0228H35.6327V32.7584H31.2649V24.0228Z" fill="#829ACD"/>
<path d="M26.8972 26.2067H29.0811V30.5745H26.8972V26.2067ZM31.265 26.2067H35.6328V30.5745H31.265V26.2067ZM37.8167 26.2067H40.0005V30.5745H37.8167V26.2067ZM31.265 32.7584H35.6328V37.1261H31.265V32.7584ZM31.265 19.655H35.6328V24.0228H31.265V19.655Z" fill="#003399"/>
</svg>

<svg width="80" height="57" viewBox="0 0 80 57" fill="none" xmlns="http://www.w3.org/2000/svg"><path d="M79.31 48.045a8.735 8.735 0 0 1-8.735 8.736H9.426A8.736 8.736 0 0 1 .69 48.045V8.735A8.736 8.736 0 0 1 9.426 0h61.149a8.735 8.735 0 0 1 8.735 8.736v39.31Z" fill="#060"/><path d="M70.575 0H33.449v56.781h37.126a8.736 8.736 0 0 0 8.735-8.736V8.735A8.736 8.736 0 0 0 70.575 0Z" fill="#D52B1E"/><path d="M33.449 10.92a17.47 17.47 0 1 0 0 34.941 17.47 17.47 0 0 0 0-34.942Zm-13.35 10.032 3.498 3.499-5.372 2.686a15.179 15.179 0 0 1 1.874-6.185Zm-1.874 8.69 9.61 4.82-5.91 3.94.03.045a15.206 15.206 0 0 1-3.73-8.805Zm13.04 13.861a15.165 15.165 0 0 1-5.66-2.01h5.66v2.01Zm0-4.193h-6.768l6.768-4.512v4.512Zm0-7.137-1.326.884-9.336-4.667 4.621-2.31 6.041 6.038v.055Zm0-3.143-7.738-7.737 7.738 1.288v6.45Zm0-8.718-9.679-1.557a15.25 15.25 0 0 1 9.679-5.477v7.034Zm15.534.64a15.18 15.18 0 0 1 1.874 6.187L43.3 24.453l3.499-3.5Zm-11.166-7.674c3.8.543 7.256 2.499 9.679 5.477l-9.68 1.557v-7.034Zm0 9.303 7.737-1.29-7.737 7.74v-6.45Zm0 9.537 6.038-6.038 4.623 2.31-9.333 4.667-1.328-.884v-.055Zm0 11.385v-2.01h5.66a15.166 15.166 0 0 1-5.66 2.01Zm0-4.193v-4.512L42.4 39.31h-6.768Zm9.312-.863.03-.046-5.91-3.94 9.61-4.82a15.235 15.235 0 0 1-3.73 8.806Z" fill="#FFCC4D"/><path d="M24.713 17.471v15.287a8.736 8.736 0 0 0 17.471 0V17.471h-17.47Z" fill="#D52B1E"/><path d="M26.897 19.655v13.103a6.552 6.552 0 0 0 13.104 0V19.655H26.897Z" fill="#fff"/><path d="M29.081 26.207h8.736v4.367H29.08v-4.367Z" fill="#829ACD"/><path d="M31.265 24.023h4.368v8.735h-4.368v-8.735Z" fill="#829ACD"/><path d="M26.897 26.207h2.184v4.367h-2.184v-4.367Zm4.368 0h4.368v4.367h-4.368v-4.367Zm6.552 0H40v4.367h-2.184v-4.367Zm-6.552 6.551h4.368v4.368h-4.368v-4.368Zm0-13.103h4.368v4.368h-4.368v-4.368Z" fill="#039"/></svg>
